X: 1610
T: Joe Yates Fairy Waltz
B: australian traditional tunes wiki
M:3/4
L:1/8
R: Waltz
Q: 1/4=100
K:G
V:1 
"G" D4 B2 | B6 | D4 d2 | d6 |"Am" c4 B2 |  A4 G2 |"D" F6 |"Em" E6 |
"C" E4 c2 | c6 |"G" D4 B2 | B6 | D4 G2 |"D" F4 c2 |"Em" E4 G2 |  "G7" D4 z2 |
"G" D4 B2 | B6 |"D" D4 c2 | c4 g2 |"Am" g4 d2 | c4 B2 |"C" e6- | e6 |
"Am" e4 A2 |  A4 d2 |"G" d4 G2 | G6 |"Am" A2 B2 c2 |"D7" B4 A2 |"G" G6- | G2 B2 c2 ||
"G" d2 g2 e2 | d2 g2 e2 |  d2 B2 c2 | d2 ^c2 d2 |"Am" e2 A2 B2 | c2 B2 e2 | e2 d2 ^c2 |"G" d2 B2 =c2 |
"G" d2 g2 e2 |  d2 g2 e2 | d2 B2 c2 | d4 f2 |"C" e4 g2 |"D7" f4 Pe2 |"G" d6- | d2 e2 f2 |
"G" g6 |"D" f4 c2 |  e4 d2 | d2 ^c2 d2 |"C" e6 | d4 A2 |"Dm" c4 B2 |"G" B6 |
"Am" e4 A2 | A6 |"G" d4 G2 | G6 |  "D7" A2 B2 c2 | B4 A2 |"G" G6- | G6 |
% abcbook-tune_id 6342d53a17b25262ff89cac9


% abcbook-boost 0
% abcbook-tablature 
% abcbook-transpose 
% abcbook-lastupdated 1665324373835
% abcbook-soundfonts 
% abcbook-repeats 1
% NFF Book 2017
% Bush Traditions recording played by Tony Stuart

